X:1010
T: Végig megyek a budai Lánchídon
L:1/4
Q:1/4=116
K:G
G/G/ c c | d/B/A/B/ | c/<A/ G z |
d/d/ g g | a/f/e/f/ | g/e/ d z |
d/d/ g g | a/f/e/f/ | g/<e/ d z |
d/<e/ d g | f/e/ (3:2:2 d A/ | c/<B/ G z |

